assets/Check box with check/Flat/check_box_with_check_flat.svg

<svg width="32" height="32" viewBox="0 0 32 32" fill="none" xmlns="http://www.w3.org/2000/svg">
<path d="M26.875 30H5.125C3.39937 30 2 28.6006 2 26.875V5.125C2 3.39937 3.39937 2 5.125 2H26.875C28.6006 2 30 3.39937 30 5.125V26.875C30 28.6006 28.6006 30 26.875 30Z" fill="#212121"/>
<path d="M13.242 23C12.8588 23 12.4757 22.8566 12.183 22.5692L6.43855 16.9278C5.85382 16.3535 5.85382 15.422 6.43855 14.8477C7.02329 14.2735 7.97186 14.2735 8.55659 14.8477L13.242 19.4491L23.4434 9.43069C24.0281 8.85644 24.9767 8.85644 25.5614 9.43069C26.1462 10.0049 26.1462 10.9365 25.5614 11.5107L14.301 22.5692C14.009 22.8566 13.6252 23 13.242 23Z" fill="#F4F4F4"/>
</svg>

<svg xmlns="http://www.w3.org/2000/svg" width="32" height="32" fill="none"><path fill="#212121" d="M26.875 30H5.125A3.125 3.125 0 0 1 2 26.875V5.125C2 3.399 3.4 2 5.125 2h21.75C28.601 2 30 3.4 30 5.125v21.75C30 28.601 28.6 30 26.875 30Z"/><path fill="#F4F4F4" d="M13.242 23c-.383 0-.766-.143-1.059-.43l-5.744-5.642a1.453 1.453 0 0 1 0-2.08 1.517 1.517 0 0 1 2.118 0l4.685 4.601L23.443 9.431a1.517 1.517 0 0 1 2.118 0 1.452 1.452 0 0 1 0 2.08l-11.26 11.058c-.292.288-.676.431-1.059.431Z"/></svg>
